;FLAVOR:Marlin
;TIME:4359
;Filament used: 3.88867m
;Layer height: 0.3
;MINX:65.294
;MINY:91.85
;MINZ:0.3
;MAXX:133.55
;MAXY:108.15
;MAXZ:48.5
;Generated with Cura_SteamEngine mb-master-20191116
M140 S70
M105
M190 S70
M104 S220
M105
M109 S220
M82 ;absolute extrusion mode
;Sliced at: Fri 02-06-2023 01:42:32
G21 ;metric values
M107
G28
M420 S1
G90 ;absolute positioning
G92 E0; reset extruder distance
G1 X0 Y0 Z5 F5000 ;move nozzle up 5mm for safe homing
G29;ABL
M500
M82 ;set extruder to absolute mode
M107 ;start with the fan off
G1 X0 Y0 Z15.0 F5000 ;move the platform down 15mm
G92 E0 ;zero the extruded length
G1 F200 E3 ;extrude 3mm of feed stock
G1 F200 E0 ;Retract
G4 S2 ;Wait for material to fall
G1 F200 E3
G92 E0 ;zero the extruded length again
M117 Printing...
G92 E0
;WIPE
G91
G1 X -20 F3000
G1 X40
G1 X-20
G90

G92 E0
G1 F2400 E-1
;LAYER_COUNT:160
;LAYER:0
M107
G1 F600 Z0.8
G0 F4800 X67.053 Y92.305 Z0.8
;TYPE:SKIRT
G1 F600 Z0.3
G1 F2400 E0.02495
G1 F1080 X67.362 Y92.085 E0.04198
G1 X67.709 Y91.933 E0.05899
G1 X68.25 Y91.85 E0.08356
G1 X131.75 Y91.85 E2.93479
G1 X132.127 Y91.89 E2.95181
G1 X132.487 Y92.008 E2.96882
G1 X132.814 Y92.198 E2.9858
G1 X133.095 Y92.453 E3.00284
G1 X133.315 Y92.762 E3.01987
G1 X133.467 Y93.109 E3.03688
G1 X133.55 Y93.65 E3.06146
G1 X133.55 Y106.35 E3.6317
G1 X133.51 Y106.727 E3.64873
G1 X133.392 Y107.087 E3.66574
G1 X133.202 Y107.414 E3.68272
G1 X132.947 Y107.695 E3.69976
G1 X132.638 Y107.915 E3.71679
G1 X132.291 Y108.067 E3.7338
G1 X131.75 Y108.15 E3.75837
G1 X68.402 Y108.15 E6.60277
G1 X68.133 Y108.13 E6.61488
G1 X67.981 Y108.107 E6.62179
G1 X67.614 Y108.011 E6.63882
G1 X67.276 Y107.84 E6.65583
G1 X66.98 Y107.603 E6.67285
G1 X66.741 Y107.309 E6.68987
G1 X66.569 Y106.971 E6.7069
G1 X66.472 Y106.605 E6.7239
G1 X66.45 Y106.327 E6.73642
G1 X66.45 Y105.958 E6.75299
G1 X66.357 Y105.928 E6.75738
G1 X66.03 Y105.738 E6.77436
G1 X65.749 Y105.483 E6.79139
G1 X65.529 Y105.174 E6.80843
G1 X65.377 Y104.827 E6.82544
G1 X65.294 Y104.286 E6.85001
G1 X65.294 Y95.714 E7.2349
G1 X65.334 Y95.337 E7.25193
G1 X65.452 Y94.977 E7.26894
G1 X65.642 Y94.65 E7.28592
G1 X65.897 Y94.369 E7.30296
G1 X66.206 Y94.149 E7.31999
G1 X66.45 Y94.042 E7.33195
G1 X66.45 Y93.65 E7.34955
G1 X66.49 Y93.273 E7.36658
G1 X66.608 Y92.913 E7.38359
G1 X66.798 Y92.586 E7.40057
G1 X67.053 Y92.305 E7.41761
G0 F4800 X67.443 Y92.506
G1 F1080 X67.737 Y92.347 E7.43261
G1 X68.061 Y92.263 E7.44764
G1 X68.25 Y92.25 E7.45615
G1 X131.75 Y92.25 E10.30737
G1 X132.082 Y92.29 E10.32239
G1 X132.394 Y92.407 E10.33735
G1 X132.671 Y92.595 E10.35238
G1 X132.894 Y92.843 E10.36736
G1 X133.053 Y93.137 E10.38237
G1 X133.137 Y93.461 E10.39739
G1 X133.15 Y93.65 E10.4059
G1 X133.15 Y106.35 E10.97615
G1 X133.11 Y106.682 E10.99116
G1 X132.993 Y106.994 E11.00612
G1 X132.805 Y107.271 E11.02115
G1 X132.557 Y107.494 E11.03613
G1 X132.263 Y107.653 E11.05114
G1 X131.939 Y107.737 E11.06617
G1 X131.75 Y107.75 E11.07467
G1 X68.402 Y107.75 E13.91907
G1 X68.193 Y107.734 E13.92848
G1 X68.041 Y107.711 E13.93539
G1 X67.719 Y107.622 E13.95039
G1 X67.427 Y107.459 E13.9654
G1 X67.182 Y107.232 E13.9804
G1 X66.998 Y106.953 E13.99541
G1 X66.885 Y106.639 E14.01039
G1 X66.85 Y106.327 E14.02449
G1 X66.85 Y105.657 E14.05457
G1 X66.762 Y105.646 E14.05855
G1 X66.45 Y105.529 E14.07352
G1 X66.173 Y105.341 E14.08855
G1 X65.95 Y105.093 E14.10352
G1 X65.791 Y104.799 E14.11853
G1 X65.707 Y104.475 E14.13356
G1 X65.694 Y104.286 E14.14207
G1 X65.694 Y95.714 E14.52696
G1 X65.734 Y95.382 E14.54197
G1 X65.851 Y95.07 E14.55694
G1 X66.039 Y94.793 E14.57197
G1 X66.287 Y94.57 E14.58694
G1 X66.581 Y94.411 E14.60195
G1 X66.85 Y94.341 E14.61443
G1 X66.85 Y93.65 E14.64546
G1 X66.89 Y93.318 E14.66047
G1 X67.007 Y93.006 E14.67543
G1 X67.195 Y92.729 E14.69047
G1 X67.443 Y92.506 E14.70544
G0 F4800 X67.589 Y92.899
G1 F1080 X67.825 Y92.745 E14.71809
G1 X68.095 Y92.662 E14.73078
G1 X68.25 Y92.65 E14.73776
G1 X131.75 Y92.65 E17.58898
G1 X132.029 Y92.69 E17.60164
G1 X132.286 Y92.806 E17.6143
G1 X132.501 Y92.989 E17.62698
G1 X132.655 Y93.225 E17.63963
G1 X132.738 Y93.495 E17.65231
G1 X132.75 Y93.65 E17.65929
G1 X132.75 Y106.35 E18.22954
G1 X132.71 Y106.629 E18.24219
G1 X132.594 Y106.886 E18.25486
G1 X132.411 Y107.101 E18.26753
G1 X132.175 Y107.255 E18.28019
G1 X131.905 Y107.338 E18.29287
G1 X131.75 Y107.35 E18.29985
G1 X68.402 Y107.35 E21.14425
G1 X68.252 Y107.339 E21.151
G1 X68.1 Y107.316 E21.15791
G1 X67.83 Y107.235 E21.17056
G1 X67.593 Y107.081 E21.18325
G1 X67.409 Y106.868 E21.19589
G1 X67.291 Y106.611 E21.20859
G1 X67.25 Y106.327 E21.22147
G1 X67.25 Y105.286 E21.26822
G1 X67.094 Y105.286 E21.27522
G1 X66.815 Y105.246 E21.28788
G1 X66.558 Y105.13 E21.30054
G1 X66.343 Y104.947 E21.31321
G1 X66.189 Y104.711 E21.32587
G1 X66.106 Y104.441 E21.33855
G1 X66.094 Y104.286 E21.34553
G1 X66.094 Y95.714 E21.73042
G1 X66.134 Y95.435 E21.74308
G1 X66.25 Y95.178 E21.75574
G1 X66.433 Y94.963 E21.76842
G1 X66.669 Y94.809 E21.78107
G1 X66.939 Y94.726 E21.79375
G1 X67.094 Y94.714 E21.80073
G1 X67.25 Y94.714 E21.80774
G1 X67.25 Y93.65 E21.85551
G1 X67.29 Y93.371 E21.86817
G1 X67.406 Y93.114 E21.88083
G1 X67.589 Y92.899 E21.89351
G0 F4800 X67.803 Y93.249
G1 F1080 X67.976 Y93.116 E21.9033
G1 X68.25 Y93.05 E21.91596
G1 X131.75 Y93.05 E24.76718
G1 X131.965 Y93.09 E24.777
G1 X132.151 Y93.203 E24.78678
G1 X132.284 Y93.376 E24.79657
G1 X132.35 Y93.65 E24.80923
G1 X132.35 Y106.35 E25.37947
G1 X132.31 Y106.565 E25.38929
G1 X132.197 Y106.751 E25.39907
G1 X132.024 Y106.884 E25.40886
G1 X131.75 Y106.95 E25.42152
G1 X68.402 Y106.95 E28.26592
G1 X68.312 Y106.943 E28.26997
G1 X68.16 Y106.92 E28.27687
G1 X67.954 Y106.849 E28.28666
G1 X67.787 Y106.709 E28.29644
G1 X67.681 Y106.518 E28.30625
G1 X67.65 Y106.327 E28.31494
G1 X67.65 Y104.886 E28.37964
G1 X67.094 Y104.886 E28.40461
G1 X66.879 Y104.846 E28.41443
G1 X66.693 Y104.733 E28.4242
G1 X66.56 Y104.56 E28.434
G1 X66.494 Y104.286 E28.44665
G1 X66.494 Y95.714 E28.83154
G1 X66.534 Y95.499 E28.84136
G1 X66.647 Y95.313 E28.85114
G1 X66.82 Y95.18 E28.86093
G1 X67.094 Y95.114 E28.87359
G1 X67.65 Y95.114 E28.89855
G1 X67.65 Y93.65 E28.96429
G1 X67.69 Y93.435 E28.97411
G1 X67.803 Y93.249 E28.98388
G0 F4800 X68.089 Y93.531
G1 F1080 X68.25 Y93.45 E28.99197
G1 X131.75 Y93.45 E31.8432
G1 X131.869 Y93.489 E31.84882
G1 X131.95 Y93.65 E31.85691
G1 X131.95 Y106.35 E32.42716
G1 X131.911 Y106.469 E32.43278
G1 X131.75 Y106.55 E32.44087
G1 X68.402 Y106.55 E35.28527
G1 X68.372 Y106.548 E35.28662
G1 X68.22 Y106.525 E35.29353
G1 X68.109 Y106.468 E35.29913
G1 X68.05 Y106.327 E35.30599
G1 X68.05 Y93.65 E35.8752
G1 X68.089 Y93.531 E35.88083
G1 F2400 E34.88083
G1 F600 Z0.8
G0 F4800 X67.094 Y95.514 Z0.8
G1 F600 Z0.3
G1 F2400 E35.90577
G1 F1080 X67.65 Y95.514 E35.93074
G1 X67.769 Y95.553 E35.93636
G1 X67.85 Y95.714 E35.94445
G1 X67.85 Y104.286 E36.32935
G1 X67.811 Y104.405 E36.33497
G1 X67.65 Y104.486 E36.34306
G1 X67.094 Y104.486 E36.36803
G1 X66.975 Y104.447 E36.37365
G1 X66.894 Y104.286 E36.38174
G1 X66.894 Y95.714 E36.76663
G1 X66.933 Y95.595 E36.77226
G1 X67.094 Y95.514 E36.78035
G0 F4800 X67.294 Y95.914
G1 F1080 X67.45 Y95.914 E36.78735
G1 X67.45 Y104.086 E37.15429
G1 X67.294 Y104.086 E37.16129
G1 X67.294 Y95.914 E37.52822
G1 F2400 E36.52822
G1 F600 Z0.8
;MESH:Part10.stl
G0 F4800 X131.55 Y106.15 Z0.8
;TYPE:WALL-OUTER
G1 F600 Z0.3
G1 F2400 E37.55317
G1 F1080 X68.45 Y106.15 E40.38643
G1 X68.45 Y93.85 E40.93872
G1 X131.55 Y93.85 E43.77198
G1 X131.55 Y106.15 E44.32427
G0 F4800 X131.35 Y106.15
G0 X131.11 Y105.71
G1 F2400 E43.32427
G1 F600 Z0.8
G0 F4800 X93.303 Y95.367 Z0.8
G1 F600 Z0.3
G1 F2400 E44.34921
G1 F1080 X92.616 Y95.47 E44.3804
G1 X91.953 Y95.675 E44.41156
G1 X91.327 Y95.977 E44.44277
G1 X90.754 Y96.368 E44.47392
G1 X90.245 Y96.841 E44.50512
G1 X89.811 Y97.383 E44.5363
G1 X89.464 Y97.984 E44.56746
G1 X89.21 Y98.631 E44.59867
G1 X89.057 Y99.308 E44.62983
G1 X89.004 Y100 E44.66099
G1 X89.057 Y100.692 E44.69216
G1 X89.21 Y101.369 E44.72332
G1 X89.464 Y102.016 E44.75453
G1 X89.811 Y102.617 E44.78569
G1 X90.245 Y103.159 E44.81687
G1 X90.754 Y103.632 E44.84807
G1 X91.327 Y104.023 E44.87922
G1 X91.953 Y104.325 E44.91042
G1 X92.616 Y104.53 E44.94158
G1 X93.303 Y104.633 E44.97278
G1 X93.997 Y104.633 E45.00394
G1 X94.684 Y104.53 E45.03513
G1 X95.347 Y104.325 E45.06629
G1 X95.973 Y104.023 E45.0975
G1 X96.546 Y103.632 E45.12865
G1 X97.055 Y103.159 E45.15984
G1 X97.489 Y102.617 E45.19102
G1 X97.836 Y102.016 E45.22218
G1 X98.09 Y101.369 E45.25339
G1 X98.243 Y100.692 E45.28456
G1 X98.296 Y100 E45.31572
G1 X98.243 Y99.308 E45.34688
G1 X98.09 Y98.631 E45.37805
G1 X97.836 Y97.984 E45.40926
G1 X97.489 Y97.383 E45.44042
G1 X97.055 Y96.841 E45.47159
G1 X96.546 Y96.368 E45.50279
G1 X95.973 Y95.977 E45.53394
G1 X95.347 Y95.675 E45.56515
G1 X94.684 Y95.47 E45.59631
G1 X93.997 Y95.367 E45.6275
G1 X93.303 Y95.367 E45.65866
G0 F4800 X93.106 Y95.396
G0 X93.273 Y94.967
;TYPE:WALL-INNER
G1 F1080 X92.527 Y95.079 E45.69253
G1 X91.806 Y95.302 E45.72642
G1 X91.126 Y95.63 E45.76032
G1 X90.504 Y96.055 E45.79415
G1 X89.951 Y96.568 E45.82801
G1 X89.48 Y97.157 E45.86188
G1 X89.103 Y97.81 E45.89573
G1 X88.827 Y98.513 E45.92964
G1 X88.66 Y99.248 E45.96349
G1 X88.603 Y100 E45.99735
G1 X88.66 Y100.752 E46.03121
G1 X88.827 Y101.487 E46.06506
G1 X89.103 Y102.19 E46.09897
G1 X89.48 Y102.843 E46.13282
G1 X89.951 Y103.432 E46.16669
G1 X90.504 Y103.945 E46.20056
G1 X91.126 Y104.37 E46.23438
G1 X91.806 Y104.698 E46.26828
G1 X92.527 Y104.921 E46.30217
G1 X93.273 Y105.033 E46.33604
G1 X94.027 Y105.033 E46.36989
G1 X94.773 Y104.921 E46.40377
G1 X95.494 Y104.698 E46.43765
G1 X96.174 Y104.37 E46.47155
G1 X96.796 Y103.945 E46.50538
G1 X97.349 Y103.432 E46.53925
G1 X97.82 Y102.843 E46.57311
G1 X98.197 Y102.19 E46.60697
G1 X98.473 Y101.487 E46.64088
G1 X98.64 Y100.752 E46.67472
G1 X98.697 Y100 E46.70858
G1 X98.64 Y99.248 E46.74245
G1 X98.473 Y98.513 E46.77629
G1 X98.197 Y97.81 E46.8102
G1 X97.82 Y97.157 E46.84406
G1 X97.349 Y96.568 E46.87792
G1 X96.796 Y96.055 E46.91179
G1 X96.174 Y95.63 E46.94561
G1 X95.494 Y95.302 E46.97951
G1 X94.773 Y95.079 E47.0134
G1 X94.027 Y94.967 E47.04727
G1 X93.273 Y94.967 E47.08113
G1 F2400 E46.08113
G1 F600 Z0.8
G0 F4800 X118.703 Y95.367 Z0.8
;TYPE:WALL-OUTER
G1 F600 Z0.3
G1 F2400 E47.10607
G1 F1080 X118.016 Y95.47 E47.13726
G1 X117.353 Y95.675 E47.16842
G1 X116.728 Y95.977 E47.19959
G1 X116.154 Y96.368 E47.23078
G1 X115.645 Y96.841 E47.26198
G1 X115.211 Y97.383 E47.29315
G1 X114.864 Y97.984 E47.32431
G1 X114.61 Y98.631 E47.35552
G1 X114.457 Y99.308 E47.38669
G1 X114.404 Y100 E47.41785
G1 X114.457 Y100.692 E47.44901
G1 X114.61 Y101.369 E47.48018
G1 X114.864 Y102.016 E47.51139
G1 X115.211 Y102.617 E47.54255
G1 X115.645 Y103.159 E47.57373
G1 X116.154 Y103.632 E47.60492
G1 X116.728 Y104.023 E47.63611
G1 X117.353 Y104.325 E47.66728
G1 X118.016 Y104.53 E47.69844
G1 X118.703 Y104.633 E47.72963
G1 X119.397 Y104.633 E47.76079
G1 X120.084 Y104.53 E47.79198
G1 X120.747 Y104.325 E47.82314
G1 X121.372 Y104.023 E47.85431
G1 X121.946 Y103.632 E47.88549
G1 X122.455 Y103.159 E47.91669
G1 X122.889 Y102.617 E47.94787
G1 X123.236 Y102.016 E47.97903
G1 X123.49 Y101.369 E48.01024
G1 X123.643 Y100.692 E48.04141
G1 X123.696 Y100 E48.07257
G1 X123.643 Y99.308 E48.10373
G1 X123.49 Y98.631 E48.1349
G1 X123.236 Y97.984 E48.16611
G1 X122.889 Y97.383 E48.19727
G1 X122.455 Y96.841 E48.22844
G1 X121.946 Y96.368 E48.25964
G1 X121.372 Y95.977 E48.29083
G1 X120.747 Y95.675 E48.32199
G1 X120.084 Y95.47 E48.35315
G1 X119.397 Y95.367 E48.38435
G1 X118.703 Y95.367 E48.41551
G0 F4800 X118.506 Y95.396
G0 X118.673 Y94.967
;TYPE:WALL-INNER
G1 F1080 X117.927 Y95.079 E48.44938
G1 X117.206 Y95.302 E48.48327
G1 X116.527 Y95.63 E48.51713
G1 X115.904 Y96.054 E48.55096
G1 X115.351 Y96.568 E48.58486
G1 X114.88 Y97.157 E48.61873
G1 X114.503 Y97.81 E48.65258
G1 X114.227 Y98.513 E48.68649
G1 X114.06 Y99.248 E48.72034
G1 X114.003 Y100 E48.7542
G1 X114.06 Y100.752 E48.78806
G1 X114.227 Y101.487 E48.8219
G1 X114.503 Y102.19 E48.85582
G1 X114.88 Y102.843 E48.88967
G1 X115.351 Y103.432 E48.92353
G1 X115.904 Y103.946 E48.95743
G1 X116.527 Y104.37 E48.99127
G1 X117.206 Y104.698 E49.02513
G1 X117.927 Y104.921 E49.05902
G1 X118.673 Y105.033 E49.09289
G1 X119.427 Y105.033 E49.12674
G1 X120.173 Y104.921 E49.16062
G1 X120.894 Y104.698 E49.1945
G1 X121.573 Y104.37 E49.22836
G1 X122.196 Y103.946 E49.2622
G1 X122.749 Y103.432 E49.2961
G1 X123.22 Y102.843 E49.32996
G1 X123.597 Y102.19 E49.36382
G1 X123.873 Y101.487 E49.39773
G1 X124.04 Y100.752 E49.43157
G1 X124.097 Y100 E49.46544
G1 X124.04 Y99.248 E49.4993
G1 X123.873 Y98.513 E49.53314
G1 X123.597 Y97.81 E49.56705
G1 X123.22 Y97.157 E49.60091
G1 X122.749 Y96.568 E49.63477
G1 X122.196 Y96.054 E49.66867
G1 X121.573 Y95.63 E49.70251
G1 X120.894 Y95.302 E49.73637
G1 X120.173 Y95.079 E49.77025
G1 X119.427 Y94.967 E49.80413
G1 X118.673 Y94.967 E49.83798
G1 F2400 E48.83798
G1 F600 Z0.8
G0 F4800 X131.15 Y105.75 Z0.8
G1 F600 Z0.3
G1 F2400 E49.86293
G1 F1080 X68.85 Y105.75 E52.66027
G1 X68.85 Y94.25 E53.17663
G1 X131.15 Y94.25 E55.97398
G1 X131.15 Y105.75 E56.49034
G0 F4800 X130.75 Y105.35
G1 F1080 X120.009 Y105.35 E56.97262
G1 X120.262 Y105.312 E56.98411
G1 X121.041 Y105.071 E57.02073
G1 X121.774 Y104.717 E57.05728
G1 X122.446 Y104.26 E57.09377
G1 X123.043 Y103.705 E57.13037
G1 X123.551 Y103.069 E57.16691
G1 X123.958 Y102.364 E57.20347
G1 X124.256 Y101.605 E57.24008
G1 X124.437 Y100.812 E57.2766
G1 X124.498 Y100 E57.31316
G1 X124.437 Y99.188 E57.34973
G1 X124.256 Y98.395 E57.38625
G1 X123.958 Y97.636 E57.42286
G1 X123.551 Y96.931 E57.45941
G1 X123.043 Y96.295 E57.49596
G1 X122.446 Y95.74 E57.53256
G1 X121.774 Y95.283 E57.56905
G1 X121.041 Y94.929 E57.6056
G1 X120.262 Y94.688 E57.64221
G1 X120.009 Y94.65 E57.6537
G1 X130.75 Y94.65 E58.13599
G1 X130.75 Y105.35 E58.61643
G1 F2400 E57.61643
G1 F600 Z0.8
G0 F4800 X118.091 Y105.35 Z0.8
G1 F600 Z0.3
G1 F2400 E58.64137
G1 F1080 X94.609 Y105.35 E59.69574
G1 X94.862 Y105.312 E59.70723
G1 X95.641 Y105.071 E59.74384
G1 X96.375 Y104.717 E59.78043
G1 X97.046 Y104.258 E59.81694
G1 X97.643 Y103.705 E59.85348
G1 X98.151 Y103.069 E59.89003
G1 X98.558 Y102.364 E59.92658
G1 X98.856 Y101.605 E59.96319
G1 X99.037 Y100.812 E59.99971
G1 X99.098 Y100 E60.03627
G1 X99.037 Y99.188 E60.07284
G1 X98.856 Y98.395 E60.10936
G1 X98.558 Y97.636 E60.14597
G1 X98.151 Y96.931 E60.18252
G1 X97.643 Y96.295 E60.21907
G1 X97.046 Y95.742 E60.25561
G1 X96.375 Y95.283 E60.29211
G1 X95.641 Y94.929 E60.3287
G1 X94.862 Y94.688 E60.36532
G1 X94.609 Y94.65 E60.37681
G1 X118.091 Y94.65 E61.43118
G1 X117.838 Y94.688 E61.44266
G1 X117.059 Y94.929 E61.47928
G1 X116.326 Y95.283 E61.51583
G1 X115.654 Y95.74 E61.55232
G1 X115.057 Y96.295 E61.58892
G1 X114.549 Y96.931 E61.62547
G1 X114.142 Y97.636 E61.66202
G1 X113.844 Y98.395 E61.69863
G1 X113.663 Y99.188 E61.73515
G1 X113.602 Y100 E61.77171
G1 X113.663 Y100.812 E61.80828
G1 X113.844 Y101.605 E61.8448
G1 X114.142 Y102.364 E61.88141
G1 X114.549 Y103.069 E61.91796
G1 X115.057 Y103.705 E61.95451
G1 X115.654 Y104.26 E61.99111
G1 X116.326 Y104.717 E62.0276
G1 X117.059 Y105.071 E62.06415
G1 X117.838 Y105.312 E62.10077
G1 X118.091 Y105.35 E62.11225
G1 F2400 E61.11225
G1 F600 Z0.8
G0 F4800 X92.691 Y105.35 Z0.8
G1 F600 Z0.3
G1 F2400 E62.1372
G1 F1080 X69.25 Y105.35 E63.18973
G1 X69.25 Y94.65 E63.67017
G1 X92.691 Y94.65 E64.7227
G1 X92.438 Y94.688 E64.73419
G1 X91.659 Y94.929 E64.7708
G1 X90.925 Y95.283 E64.80739
G1 X90.254 Y95.742 E64.84389
G1 X89.657 Y96.295 E64.88043
G1 X89.149 Y96.931 E64.91698
G1 X88.742 Y97.636 E64.95353
G1 X88.444 Y98.395 E64.99014
G1 X88.263 Y99.188 E65.02667
G1 X88.202 Y100 E65.06323
G1 X88.263 Y100.812 E65.09979
G1 X88.444 Y101.605 E65.13631
G1 X88.742 Y102.364 E65.17293
G1 X89.149 Y103.069 E65.20948
G1 X89.657 Y103.705 E65.24603
G1 X90.254 Y104.258 E65.28257
G1 X90.925 Y104.717 E65.31907
G1 X91.659 Y105.071 E65.35566
G1 X92.438 Y105.312 E65.39227
G1 X92.691 Y105.35 E65.40376
G1 F2400 E64.40376
G1 F600 Z0.8
G0 F4800 X90.59 Y104.96 Z0.8
;TYPE:SKIN
G1 F600 Z0.3
G1 F2400 E65.42871
G1 F1080 X69.64 Y104.96 E66.36939
G1 X69.64 Y95.04 E66.81481
G1 X90.59 Y95.04 E67.75549
